X: 10483
M: C|
L: 1/8
K: G
(uBc) |\
d(gfg) edcB | d(gfg) edcB | EGBG AGBG | DGBG AGEG |
d(gfg) edcB | d(gfg) edcB | gfgd cDEF | A2G2 G2 :|
|: (uBc) |\
d2d2 dBGB | c2e2 e2(dc) | BGBd egfa | g2g2 g2(dc) |


